svg/hand_front_right_outline.svg

<svg xmlns="http://www.w3.org/2000/svg" viewBox="0 0 24 24"><path d="M18.5 8c-.17 0-.34 0-.5.05V4.5A2.5 2.5 0 0 0 15.5 2c-.19 0-.37 0-.54.06A2.5 2.5 0 0 0 12.5 0c-1.06 0-1.96.66-2.33 1.59A2.5 2.5 0 0 0 7 4v.55c-.16-.05-.33-.05-.5-.05A2.5 2.5 0 0 0 4 7v8.5c0 4.69 3.81 8.5 8.5 8.5s8.5-3.81 8.5-8.5v-5A2.5 2.5 0 0 0 18.5 8m.5 7.5a6.5 6.5 0 1 1-13 0V7c0-.28.22-.5.5-.5s.5.22.5.5v5h2V4c0-.28.22-.5.5-.5s.5.22.5.5v7h2V2.5c0-.28.22-.5.5-.5s.5.22.5.5V11h2V4.5c0-.28.22-.5.5-.5s.5.22.5.5v8.92c-1.77.77-3 2.53-3 4.58h2c0-1.66 1.34-3 3-3v-4.5c0-.28.22-.5.5-.5s.5.22.5.5z"/></svg>

<svg xmlns="http://www.w3.org/2000/svg" id="mdi-hand-front-right-outline" viewBox="0 0 24 24"><path d="M18.5 8C18.33 8 18.16 8 18 8.05V4.5C18 3.12 16.88 2 15.5 2C15.31 2 15.13 2 14.96 2.06C14.75 .89 13.73 0 12.5 0C11.44 0 10.54 .66 10.17 1.59C9.96 1.53 9.73 1.5 9.5 1.5C8.12 1.5 7 2.62 7 4V4.55C6.84 4.5 6.67 4.5 6.5 4.5C5.12 4.5 4 5.62 4 7V15.5C4 20.19 7.81 24 12.5 24S21 20.19 21 15.5V10.5C21 9.12 19.88 8 18.5 8M19 15.5C19 19.09 16.09 22 12.5 22S6 19.09 6 15.5V7C6 6.72 6.22 6.5 6.5 6.5S7 6.72 7 7V12H9V4C9 3.72 9.22 3.5 9.5 3.5S10 3.72 10 4V11H12V2.5C12 2.22 12.22 2 12.5 2S13 2.22 13 2.5V11H15V4.5C15 4.22 15.22 4 15.5 4S16 4.22 16 4.5V13.42C14.23 14.19 13 15.95 13 18H15C15 16.34 16.34 15 18 15V10.5C18 10.22 18.22 10 18.5 10S19 10.22 19 10.5V15.5Z" /></svg>
